X:071 
T:Gypsy Polka 1 & 2, The 
F:file ID: cre.5/071gypsy
B:CRE5.092 (Polca na Giofóige)
M:2/4
L:1/8
Q:140
R:polka
K:G % source key A
P:polka 1
d/c/|:BDD|BDc/B/|AG Ac/A/|1 GB dc :|2 GFG||
B/c/|dd gf|ed cB|A/B/c/A/ DE/F/|GB dB/c/|
d/d/d/d/ gf|ed cB|Ac/A/ DE/F/|GFG||
P:polka 2
D|BDD|B/A/G/A/d|AF AB|GB dc|
BDD|B/A/G/A/d|AAA|G2G2||
AAA|FA d2|GG GE|F2 DF|
A2A|FA d2|ED/E/ FE|D2 D||

